assets/icons/location.svg

<svg width="24" height="24" viewBox="0 0 24 24" fill="none" xmlns="http://www.w3.org/2000/svg">
<path fill-rule="evenodd" clip-rule="evenodd" d="M12 4C8.13401 4 5 7.13401 5 11C5 13.2061 6.33607 15.268 8.20492 16.8876L11.6463 19.8702C11.8493 20.0461 12.1507 20.0461 12.3537 19.8702L15.7951 16.8876C17.6639 15.268 19 13.2061 19 11C19 7.13401 15.866 4 12 4ZM3 11C3 6.02944 7.02944 2 12 2C16.9706 2 21 6.02944 21 11C21 14.0264 19.1902 16.5918 17.1049 18.399L13.6635 21.3816C12.7088 22.209 11.2912 22.209 10.3365 21.3816L6.89505 18.399C4.80977 16.5918 3 14.0264 3 11Z" fill="#12131A"/>
<path d="M14 11C14 12.1046 13.1046 13 12 13C10.8954 13 10 12.1046 10 11C10 9.89543 10.8954 9 12 9C13.1046 9 14 9.89543 14 11Z" fill="#12131A"/>
</svg>

<svg xmlns="http://www.w3.org/2000/svg" width="24" height="24" fill="none" viewBox="0 0 24 24" data-c="1"><path fill="#12131A" fill-rule="evenodd" d="M12 4a7 7 0 0 0-7 7c0 2.206 1.336 4.268 3.205 5.888l3.441 2.982a.54.54 0 0 0 .708 0l3.441-2.982C17.664 15.268 19 13.206 19 11a7 7 0 0 0-7-7m-9 7a9 9 0 0 1 18 0c0 3.026-1.81 5.592-3.895 7.399l-3.441 2.983a2.54 2.54 0 0 1-3.328 0l-3.441-2.983C4.81 16.592 3 14.026 3 11" clip-rule="evenodd"/><path fill="#12131A" d="M14 11a2 2 0 1 1-4 0 2 2 0 0 1 4 0"/></svg>
